icon-themes/breeze_svg/cmd/32/starshapes.bang.svg

<svg viewBox="0 0 32 32" xmlns="http://www.w3.org/2000/svg"><path d="m19.027344 4-2.574219 5.9628906-1.734375-4.8554687-1.492188 5.0078121-3.367187-4.0722652 3.691406 6.6035152-6.2167966-4.193359 4.7871096 5.65625-6.0546878-2.277344 3.6074219 2.779297-5.59375 1.769531 6.4550779.931641-6.535156 2.933594 7.230469-1.087891-2.7187502 5.417969 5.1035152-4.269531-3.7011715 6.072265 5.0683595-4.222656-1.283203 4.71875 2.576172-5.769531 1.732421 6.894531 1.496094-7.046875 3.363282 3.878906-1.251954-4.177734 5.119141 2.988281-6.126953-4.453125 7.392578 1.373047-4.945312-3.859375 4.498046-.990234-5.357422.273437 5.4375-4.136719-6.134765 2.292969 4.056641-4.5839842-6.441407 1.2011722 3.701172-3.837891-5.070312 4.523437z" fill="#4d4d4d"/></svg>

<svg xmlns="http://www.w3.org/2000/svg" viewBox="0 0 32 32">
 <path 
     style="fill:#4d4d4d" 
     d="M 19.027344 4 L 16.453125 9.9628906 L 14.71875 5.1074219 L 13.226562 10.115234 L 9.859375 6.0429688 L 13.550781 12.646484 L 7.3339844 8.453125 L 12.121094 14.109375 L 6.0664062 11.832031 L 9.6738281 14.611328 L 4.0800781 16.380859 L 10.535156 17.3125 L 4 20.246094 L 11.230469 19.158203 L 8.5117188 24.576172 L 13.615234 20.306641 L 9.9140625 26.378906 L 14.982422 22.15625 L 13.699219 26.875 L 16.275391 21.105469 L 18.007812 28 L 19.503906 20.953125 L 22.867188 24.832031 L 21.615234 20.654297 L 26.734375 23.642578 L 20.607422 19.189453 L 28 20.5625 L 23.054688 16.703125 L 27.552734 15.712891 L 22.195312 15.986328 L 27.632812 11.849609 L 21.498047 14.142578 L 25.554688 9.5585938 L 19.113281 10.759766 L 22.814453 6.921875 L 17.744141 11.445312 L 19.027344 4 z "
     />
</svg>
